X: 71
T: Other Girls Are as Pretty as She
N: Derived from pawnee71.krn
O: Oklahoma, U.S.A.
N: from Pawnee Music by Frances Densmore, 1926
Z: transcribed to **kern format by David Huron, August 2000
C: Skidi and Chaui Bands, 1919
L: 1/8
M: 2/4
Q: 1/4=88
K: Bb clef=treble
%%linebreak <none>
B< B B/ B3/ | 
B< F F/ F3/ | 
B4 | 
B< F F/ E3/ | 
F< C B,/ B,3/ | 
C3B, | 
C2B, B, | 
B,4 | 
B,2!fermata!z2 | 
B F F E | 
F C C B,3// B,// | 
C> C C3/ C/ | 
B, B,-B,2- | 
B,2B, !fermata!z[M:3/4] | 
B,4B,2 :|]  



